img/icons/corp2/8.svg

<svg width="70" height="42" viewBox="0 0 70 42" fill="none" xmlns="http://www.w3.org/2000/svg">
<path d="M39.2735 20.4894C41.4121 19.4618 49.7075 19.3333 52.235 19.3333C55.4106 19.3333 58.5862 19.4618 61.4377 19.6544C63.4468 19.8471 64.4837 20.7464 64.7429 21.0033L64.8078 21.0675L68.0481 24.6644V0H22.9419V5.5238C22.7475 5.5238 22.6179 5.5238 22.4883 5.5238V26.9767V28.1971L32.8575 25.5636C34.3481 24.2148 37.7181 21.2602 39.2735 20.4894Z" fill="#343434"/>
<path d="M21.905 27.1058V5.52441C21.905 5.52441 12.2487 5.52441 9.1379 5.52441L1.16654 15.6728V22.0958L0 23.3162V27.1058H4.66616H6.28635C6.22155 27.2985 6.22155 27.4912 6.15674 27.7481H0.907309L0.972117 29.9961H6.28635C6.93443 32.5011 9.26751 34.2996 11.9246 34.2996C14.6466 34.2996 16.9148 32.5011 17.5629 29.9961H19.4423H20.4144L20.9329 28.5188L21.7754 28.3261V27.7481H20.7385H19.4423H17.7573C17.7573 27.5554 17.6925 27.3627 17.6277 27.1058H19.3127H21.905ZM11.9894 31.2807C10.4341 31.2807 9.2027 30.0604 9.2027 28.5188C9.2027 26.9773 10.4341 25.7569 11.9894 25.7569C13.5448 25.7569 14.7762 26.9773 14.7762 28.5188C14.7762 30.0604 13.5448 31.2807 11.9894 31.2807ZM4.86058 15.2874L10.1748 7.90093H19.4423V15.2874H4.86058Z" fill="#343434"/>
<path d="M69.6029 37.5103V32.3719L68.4364 28.7108L62.8629 22.4804C62.8629 22.4804 62.2796 21.9024 60.9187 21.7739C52.1048 21.0674 41.5411 21.5812 39.9209 22.352C38.3655 23.1227 33.5698 27.4904 33.5698 27.4904L22.2932 30.3165L21.2563 33.2069L20.2842 34.0419L20.9323 37.5745H21.71V38.7307H25.728C26.3761 40.4649 28.0611 41.621 30.0053 41.621C32.4032 41.621 34.3475 39.8226 34.5419 37.5103H57.6135C57.8079 39.8226 59.7521 41.621 62.15 41.621C64.0942 41.621 65.7792 40.4007 66.4273 38.7307H68.8252V37.5745H69.5381C69.6029 37.5745 69.6029 37.5745 69.6029 37.5103ZM30.0702 38.8591C29.1628 38.8591 28.3852 38.0884 28.3852 37.1892C28.3852 36.2899 29.1628 35.5192 30.0702 35.5192C30.9775 35.5192 31.7552 36.2899 31.7552 37.1892C31.7552 38.1526 30.9775 38.8591 30.0702 38.8591ZM49.5773 27.7473H38.4304L41.6059 23.8293C41.6059 23.8293 46.7257 23.3797 49.5773 23.3797V27.7473ZM52.4288 27.7473V23.3797C56.9006 23.2512 60.2058 23.7008 60.2058 23.7008L63.5758 27.7473H52.4288ZM62.2148 38.8591C61.3075 38.8591 60.5298 38.0884 60.5298 37.1892C60.5298 36.2899 61.3075 35.5192 62.2148 35.5192C63.1221 35.5192 63.8998 36.2899 63.8998 37.1892C63.8998 38.1526 63.1221 38.8591 62.2148 38.8591Z" fill="#343434"/>
</svg>

<svg width="70" height="42" fill="none" xmlns="http://www.w3.org/2000/svg"><path d="M39.273 20.49c2.14-1.028 10.434-1.157 12.962-1.157 3.176 0 6.351.129 9.203.321 2.009.193 3.046 1.092 3.305 1.35l.065.063 3.24 3.597V0H22.942v5.524h-.454v22.673l10.37-2.633c1.49-1.35 4.86-4.304 6.416-5.075zm-17.368 6.616V5.524H9.138L1.167 15.673v6.423L0 23.316v3.79h6.286c-.064.192-.064.385-.13.642H.908l.065 2.248h5.314c.648 2.505 2.982 4.304 5.639 4.304 2.722 0 4.99-1.799 5.638-4.304h2.851l.519-1.477.842-.193v-.578h-4.019c0-.193-.065-.385-.13-.642h4.279zm-9.916 4.175c-1.555 0-2.786-1.22-2.786-2.762s1.231-2.762 2.786-2.762c1.556 0 2.787 1.22 2.787 2.762 0 1.541-1.231 2.762-2.787 2.762zM4.861 15.287l5.314-7.386h9.267v7.386H4.861z" fill="#343434"/><path d="M69.603 37.51v-5.138l-1.167-3.661-5.573-6.23s-.583-.579-1.944-.707c-8.814-.707-19.378-.193-20.998.578-1.556.77-6.351 5.138-6.351 5.138l-11.277 2.827-1.037 2.89-.972.835.648 3.532h.778v1.157h4.018c.648 1.734 2.333 2.89 4.277 2.89 2.398 0 4.342-1.798 4.537-4.11h23.072c.194 2.312 2.138 4.11 4.536 4.11 1.944 0 3.63-1.22 4.277-2.89h2.398v-1.157h.713c.065 0 .065 0 .065-.064zM30.07 38.86c-.907 0-1.685-.772-1.685-1.67 0-.9.778-1.67 1.685-1.67s1.685.77 1.685 1.67c0 .963-.777 1.67-1.685 1.67zm19.507-11.113H38.43l3.176-3.918s5.12-.45 7.971-.45v4.368zm2.852 0V23.38c4.472-.129 7.777.32 7.777.32l3.37 4.047H52.429zm9.786 11.112c-.908 0-1.685-.77-1.685-1.67 0-.9.777-1.67 1.685-1.67.907 0 1.685.77 1.685 1.67 0 .964-.778 1.67-1.685 1.67z" fill="#343434"/></svg>
